X:3
M:C
L:1/8
K:G Minor
g<d f>A G2G:|
d|g/a/b g>d B<dg<b|a/b/f/=e/ f<c A>cf>a|g/a/b f>d B<d b>g|
f<d f>A G2 G>d|g/a/b g>d B<dg<b|a/g/f/=e/ f>c A>c f<a|
g<b^f>a g>=ed>c|d>D d/c/B/A/ B<GG||

